icons/svg/reply-list_16.svg

<?xml version="1.0" encoding="UTF-8"?>
<svg width="16px" height="16px" viewBox="0 0 16 16" version="1.1" xmlns="http://www.w3.org/2000/svg" xmlns:xlink="http://www.w3.org/1999/xlink">
    <!-- Generator: Sketch 58 (84663) - https://sketch.com -->
    <title>reply-list_16</title>
    <desc>Created with Sketch.</desc>
    <g id="Icons-Webex" stroke="none" stroke-width="1" fill="none" fill-rule="evenodd">
        <g id="chat/reply-list_16" fill="#171B1F">
            <path d="M8.999,14.0045 L15.498,14.0045 C15.774,14.0045 15.998,14.2265 15.998,14.4995 C15.998,14.7430556 15.8210123,14.9455247 15.5878381,14.987511 L15.498,14.9955 L8.999,14.9955 C8.724,14.9955 8.5,14.7735 8.5,14.4995 C8.5,14.2568333 8.67698765,14.054463 8.90945953,14.0124877 L8.999,14.0045 L15.498,14.0045 Z M6.14010824,1.14578073 C6.28310824,1.00378073 6.49810824,0.960780727 6.68510824,1.03778073 C6.87210824,1.11478073 6.99410824,1.29578073 6.99410824,1.49578073 L6.99410824,1.49578073 L6.99410824,4.96578073 C8.55410824,5.11378073 11.7031082,5.93778073 13.5141082,8.63878073 C13.6671082,8.86578073 13.6051082,9.17378073 13.3751082,9.32478073 C13.1431082,9.47678073 12.8341082,9.41378073 12.6811082,9.18678073 C10.8991082,6.52878073 7.53210824,5.92978073 6.49410824,5.92978073 C6.21710824,5.92978073 5.99410824,5.70878073 5.99410824,5.43478073 L5.99410824,5.43478073 L5.99410824,2.69278073 L1.22010824,7.42878073 L1.82610824,7.98778073 L5.99410824,12.1747807 L5.99410824,9.53578073 C5.99410824,9.26178073 6.21710824,9.04078073 6.49410824,9.04078073 C6.74210824,9.04078073 7.10610824,9.06078073 7.46210824,9.08878073 C7.73710824,9.11078073 7.94210824,9.34978073 7.92010824,9.62278073 C7.89910824,9.89478073 7.66910824,10.0937807 7.38210824,10.0767807 C7.25110824,10.0657807 7.11910824,10.0567807 6.99410824,10.0487807 L6.99410824,10.0487807 L6.99410824,13.3827807 C6.99410824,13.5837807 6.87110824,13.7647807 6.68410824,13.8407807 C6.62210824,13.8657807 6.55810824,13.8787807 6.49410824,13.8787807 C6.36210824,13.8787807 6.23310824,13.8267807 6.13810824,13.7307807 L6.13810824,13.7307807 L1.13010824,8.69878073 L0.15910824,7.80578073 C0.0601082403,7.71378073 0.00310824028,7.58678073 1.75280187e-14,7.45178073 C-0.00189175972,7.31778073 0.0501082403,7.18778073 0.14610824,7.09278073 L0.14610824,7.09278073 Z M15.498,12.0045 C15.774,12.0045 15.998,12.2265 15.998,12.5005 C15.998,12.7431667 15.8210123,12.945537 15.5878381,12.9875123 L15.498,12.9955 L8.999,12.9955 C8.724,12.9955 8.5,12.7735 8.5,12.5005 C8.5,12.2569444 8.67698765,12.0544753 8.90945953,12.012489 L8.999,12.0045 L15.498,12.0045 Z M15.498,10.0045 C15.774,10.0045 15.998,10.2265 15.998,10.4995 C15.998,10.7430556 15.8210123,10.9455247 15.5878381,10.987511 L15.498,10.9955 L9,10.9955 C8.724,10.9955 8.5,10.7735 8.5,10.4995 C8.5,10.2568333 8.67698765,10.054463 8.91016187,10.0124877 L9,10.0045 L15.498,10.0045 Z" id="fill"></path>
        </g>
    </g>
</svg>

<svg width="16" height="16" xmlns="http://www.w3.org/2000/svg"><path d="M8.999 14.005h6.499c.276 0 .5.221.5.494a.497.497 0 01-.41.489l-.09.008H8.999a.498.498 0 01-.499-.497c0-.242.177-.445.41-.487l.089-.008h6.499zM6.14 1.145a.503.503 0 01.854.35v3.47c1.56.149 4.71.973 6.52 3.674a.491.491 0 01-.139.686.504.504 0 01-.694-.138C10.9 6.529 7.532 5.93 6.494 5.93a.497.497 0 01-.5-.495V2.693L1.22 7.429l.606.559 4.168 4.187v-2.64c0-.273.223-.494.5-.494.248 0 .612.02.968.048a.494.494 0 11-.08.988 19.7 19.7 0 00-.388-.028v3.334a.495.495 0 01-.5.496.501.501 0 01-.356-.148L1.13 8.699l-.97-.893a.495.495 0 01-.013-.713zm9.358 10.86c.276 0 .5.221.5.495a.497.497 0 01-.41.488l-.09.008H8.999A.498.498 0 018.5 12.5c0-.244.177-.447.41-.489l.089-.008h6.499zm0-2c.276 0 .5.221.5.494a.497.497 0 01-.41.489l-.09.008H9a.498.498 0 01-.5-.497c0-.242.177-.445.41-.487l.09-.008h6.498z" fill="#171B1F" fill-rule="evenodd"/></svg>
